blockchains/ethereum/assets/0x6B175474E89094C44Da98b954EedeAC495271d0F/logo.svg

<svg fill="none" height="250" viewBox="0 0 250 250" width="250" xmlns="http://www.w3.org/2000/svg" xmlns:xlink="http://www.w3.org/1999/xlink"><clipPath id="a"><path d="m0 0h250v250h-250z"/></clipPath><g clip-path="url(#a)"><path d="m125 0c69.042 0 125 55.9693 125 125 0 69.042-55.958 125-125 125-69.0307 0-125-55.964-125-125 0-69.0307 55.9693-125 125-125z" fill="#f5ac37"/><path d="m129.604 133.827h47.498c1.012 0 1.49 0 1.564-1.328.388-4.832.388-9.692 0-14.529 0-.94-.467-1.328-1.485-1.328h-94.5295c-1.17 0-1.485.388-1.485 1.485v13.905c0 1.795 0 1.795 1.8731 1.795zm43.757-33.436c.135-.354.135-.7421 0-1.0909-.793-1.7268-1.732-3.375-2.824-4.9219-1.642-2.6438-3.577-5.0794-5.782-7.2675-1.041-1.3219-2.245-2.5088-3.595-3.5157-6.761-5.7544-14.799-9.827-23.439-11.8745-4.36-.9788-8.815-1.4456-13.281-1.4063h-41.9516c-1.17 0-1.3275.4669-1.3275 1.485v27.7316c0 1.1702 0 1.4852 1.485 1.4852h90.1531s.782-.158.939-.625h-.382zm0 49.687c-1.327-.147-2.666-.147-3.994 0h-86.6367c-1.1701 0-1.5638 0-1.5638 1.563v27.113c0 1.249 0 1.564 1.5638 1.564h39.9997c1.913.146 3.825.011 5.698-.388 5.805-.417 11.515-1.677 16.96-3.752 1.98-.686 3.892-1.581 5.698-2.655h.546c9.377-4.877 16.993-12.538 21.797-21.944 0 0 .545-1.181-.068-1.49zm-107.894 44.297v-.467-18.203-6.17-18.361c0-1.018 0-1.17-1.2488-1.17h-16.9539c-.9394 0-1.3275 0-1.3275-1.248v-14.845h18.1239c1.0125 0 1.4063 0 1.4063-1.327v-14.687c0-.94 0-1.17-1.2488-1.17h-16.9539c-.9394 0-1.3275 0-1.3275-1.249v-13.748c0-.86 0-1.091 1.2487-1.091h16.7964c1.1701 0 1.4851 0 1.4851-1.4851v-42.1092c0-1.2487 0-1.5637 1.5637-1.5637h58.5903c4.253.1687 8.477.6356 12.657 1.4062 8.612 1.5919 16.886 4.6688 24.452 9.062 5.017 2.9531 9.636 6.5194 13.747 10.6257 3.094 3.2119 5.884 6.6882 8.359 10.3895 2.458 3.7519 4.5 7.7626 6.103 11.9532.197 1.0914 1.244 1.8284 2.335 1.6424h13.984c1.794 0 1.794 0 1.873 1.721v12.814c0 1.249-.467 1.564-1.721 1.564h-10.784c-1.091 0-1.406 0-1.327 1.406.427 4.759.427 9.535 0 14.294 0 1.327 0 1.485 1.491 1.485h12.335c.546.703 0 1.406 0 2.115.079.905.079 1.822 0 2.728v9.456c0 1.327-.388 1.721-1.563 1.721h-14.766c-1.03-.197-2.031.461-2.267 1.485-3.516 9.141-9.141 17.336-16.408 23.906-2.655 2.391-5.446 4.641-8.359 6.717-3.128 1.8-6.171 3.673-9.377 5.158-5.901 2.655-12.088 4.612-18.439 5.855-6.03 1.08-12.145 1.57-18.282 1.485h-54.2195v-.078z" fill="#fefefd"/></g></svg>

<svg width="250" height="250" viewBox="0 0 250 250" fill="none" xmlns="http://www.w3.org/2000/svg">
<g clip-path="url(#clip0_9_658)">
<path d="M125 0C194.042 0 250 55.9693 250 125C250 194.042 194.042 250 125 250C55.9693 250 0 194.036 0 125C0 55.9693 55.9693 0 125 0Z" fill="#F5AC37"/>
<path d="M129.604 133.827H177.102C178.114 133.827 178.592 133.827 178.666 132.499C179.054 127.667 179.054 122.807 178.666 117.97C178.666 117.03 178.199 116.642 177.181 116.642H82.6515C81.4815 116.642 81.1665 117.03 81.1665 118.127V132.032C81.1665 133.827 81.1665 133.827 83.0396 133.827H129.604V133.827ZM173.361 100.391C173.496 100.037 173.496 99.6489 173.361 99.3001C172.568 97.5733 171.629 95.9251 170.537 94.3782C168.895 91.7344 166.96 89.2988 164.755 87.1107C163.714 85.7888 162.51 84.6019 161.16 83.595C154.399 77.8406 146.361 73.768 137.721 71.7205C133.361 70.7417 128.906 70.2749 124.44 70.3142H82.4884C81.3184 70.3142 81.1609 70.7811 81.1609 71.7992V99.5308C81.1609 100.701 81.1609 101.016 82.6459 101.016H172.799C172.799 101.016 173.581 100.858 173.738 100.391H173.356H173.361ZM173.361 150.078C172.034 149.931 170.695 149.931 169.367 150.078H82.7303C81.5602 150.078 81.1665 150.078 81.1665 151.641V178.754C81.1665 180.003 81.1665 180.318 82.7303 180.318H122.73C124.643 180.464 126.555 180.329 128.428 179.93C134.233 179.513 139.943 178.253 145.388 176.178C147.368 175.492 149.28 174.597 151.086 173.523H151.632C161.009 168.646 168.625 160.985 173.429 151.579C173.429 151.579 173.974 150.398 173.361 150.089V150.078ZM65.467 194.375V193.908V175.705V169.535V151.174C65.467 150.156 65.467 150.004 64.2182 150.004H47.2643C46.3249 150.004 45.9368 150.004 45.9368 148.756V133.911H64.0607C65.0732 133.911 65.467 133.911 65.467 132.584V117.897C65.467 116.957 65.467 116.727 64.2182 116.727H47.2643C46.3249 116.727 45.9368 116.727 45.9368 115.478V101.73C45.9368 100.87 45.9368 100.639 47.1855 100.639H63.9819C65.152 100.639 65.467 100.639 65.467 99.1539V57.0447C65.467 55.796 65.467 55.481 67.0307 55.481H125.621C129.874 55.6497 134.098 56.1166 138.278 56.8872C146.89 58.4791 155.164 61.556 162.73 65.9492C167.747 68.9023 172.366 72.4686 176.477 76.5749C179.571 79.7868 182.361 83.2631 184.836 86.9644C187.294 90.7163 189.336 94.727 190.939 98.9176C191.136 100.009 192.183 100.746 193.274 100.56H207.258C209.052 100.56 209.052 100.56 209.131 102.281V115.095C209.131 116.344 208.664 116.659 207.41 116.659H196.626C195.535 116.659 195.22 116.659 195.299 118.065C195.726 122.824 195.726 127.6 195.299 132.359C195.299 133.686 195.299 133.844 196.79 133.844H209.125C209.671 134.547 209.125 135.25 209.125 135.959C209.204 136.864 209.204 137.781 209.125 138.687V148.143C209.125 149.47 208.737 149.864 207.562 149.864H192.796C191.766 149.667 190.765 150.325 190.529 151.349C187.013 160.49 181.388 168.685 174.121 175.255C171.466 177.646 168.675 179.896 165.762 181.972C162.634 183.772 159.591 185.645 156.385 187.13C150.484 189.785 144.297 191.742 137.946 192.985C131.916 194.065 125.801 194.555 119.664 194.47H65.4445V194.392L65.467 194.375Z" fill="#FEFEFD"/>
</g>
<defs>
<clipPath id="clip0_9_658">
<rect width="250" height="250" fill="white"/>
</clipPath>
</defs>
</svg>
